X: 10051
T: MISS MONTGOMERIE'S REEL
R: reel
B: K\"ohler's Violin Repository, v.1, 1885 p.5 #1
F: http://www.archive.org/details/klersviolinrepos01edin
Z: 2011 John Chambers <jc:trillian.mit.edu>
M: C|
L: 1/8
K: Bb
F |\
B2BA (BA)GF | GFGB cBcd | B2BA (BA)GF | GBAc dBB :|
d |\
fBfd fBgf | dBfd {d}c2(cd) | fBfd fBgB | FBBA {c}B2(Bd) |
fBfd fBgf | dBfd c2(cd) | B2BA (BA)GF | GBAc dBB |]

%%sep 2 1 500

